modules/stroke-7/icons/news-paper.svg

<?xml version="1.0" encoding="utf-8"?>
<!-- Generated by IcoMoon.io -->
<!DOCTYPE svg PUBLIC "-//W3C//DTD SVG 1.1//EN" "http://www.w3.org/Graphics/SVG/1.1/DTD/svg11.dtd">
<svg version="1.1" xmlns="http://www.w3.org/2000/svg" xmlns:xlink="http://www.w3.org/1999/xlink" width="32" height="32" viewBox="0 0 32 32">
<g id="icomoon-ignore">
</g>
<path d="M9.069 2.672v14.928h-6.397c0 0 0 6.589 0 8.718s1.983 3.010 3.452 3.010c1.469 0 16.26 0 20.006 0 1.616 0 3.199-1.572 3.199-3.199 0-1.175 0-23.457 0-23.457h-20.259zM6.124 28.262c-0.664 0-2.385-0.349-2.385-1.944v-7.652h5.331v7.192c0 0.714-0.933 2.404-2.404 2.404h-0.542zM28.262 26.129c0 1.036-1.096 2.133-2.133 2.133h-17.113c0.718-0.748 1.119-1.731 1.119-2.404v-22.12h18.126v22.391z" fill="#000000"></path>
<path d="M12.268 5.871h13.861v1.066h-13.861v-1.066z" fill="#000000"></path>
<path d="M12.268 20.265h13.861v1.066h-13.861v-1.066z" fill="#000000"></path>
<path d="M12.268 23.997h13.861v1.066h-13.861v-1.066z" fill="#000000"></path>
<path d="M26.129 9.602h-13.861v7.997h13.861v-7.997zM25.063 16.533h-11.729v-5.864h11.729v5.864z" fill="#000000"></path>
</svg>

<svg xmlns="http://www.w3.org/2000/svg" width="32" height="32" viewBox="0 0 32 32"><path d="M9.069 2.672V17.6H2.672v8.718c0 2.129 1.983 3.01 3.452 3.01H26.13c1.616 0 3.199-1.572 3.199-3.199V2.672H9.07zm-2.945 25.59c-.664 0-2.385-.349-2.385-1.944v-7.652H9.07v7.192c0 .714-.933 2.404-2.404 2.404h-.542zm22.138-2.133c0 1.036-1.096 2.133-2.133 2.133H9.016c.718-.748 1.119-1.731 1.119-2.404V3.738h18.126v22.391z"/><path d="M12.268 5.871h13.861v1.066H12.268V5.871zM12.268 20.265h13.861v1.066H12.268v-1.066zM12.268 23.997h13.861v1.066H12.268v-1.066zM26.129 9.602H12.268v7.997h13.861V9.602zm-1.066 6.931H13.334v-5.864h11.729v5.864z"/></svg>
